X:101
T:Eel in the Sink, The
M:C|
L:1/8
R:Reel (Key of Amix)
K:Amix
"A"e2AB cdec | "G"d2BG dG (3Bcd | "A"e2AB cdef |1 "G"gedB "A"BAAd :|2 "G"gedB "A"BAA2 ||
"A"a2ea aged | "G"(3Bcd ef g2fg | "A"a2ea agab | "G"gedB BAA2 |
"A"a2ea aged | "G"(3Bcd ef g2fg | "D"afge fdef | "G"gedB BAAd |]
